public/avatar/shoe/43.svg

<svg xmlns:xlink="http://www.w3.org/1999/xlink" height="38.3" width="36.05" xmlns="http://www.w3.org/2000/svg"><use height="16.9" transform="translate(8.55 12.1)" width="23.85" xlink:href="#a"/><defs><g id="a"><path d="M4.8-.9Q1.55.85-2-.05L-3.2-1l1.4-.65Q1.6-3.1 4.8-.9M-8.7 1.85q2.3.8 3.5 3 1.3 2.6.45 5.3l-.05.1-3.8.4q-3.2-.05-6-1.75v-.1q-.45-1.95.35-4.05.7-2.15 5.35-3l.2.1m12.15 6.3q-.5-.4-.6-1l-.1-.45.05-1.2.1-.85q.15-.95.55-1.8l1.05-1.6Q5.1.6 5.95.2 8.4 1.8 7.9 5.25L6.35 6.7l-.9.6-2 .85m-8.25 2.1v-.05.05" fill="#5e5922" fill-rule="evenodd" transform="translate(15.25 2.75)"/><path d="m-3.2-1 1.2.95q3.55.9 6.8-.85L5.95.2Q5.1.6 4.5 1.25l-1.05 1.6q-.4.85-.55 1.8l-.1.85-.05 1.2.1.45q.1.6.6 1L-.45 9.4l-.6.2-1.65.35-2.05.3v-.1q.85-2.7-.45-5.3-1.2-2.2-3.5-3V1.8l.4-.25Q-5.75.1-3.2-1" fill="#647b44" fill-rule="evenodd" transform="translate(15.25 2.75)"/><path d="M-8.7 1.8v.05l-.2-.1.2.05" fill="#c00" fill-rule="evenodd" transform="translate(15.25 2.75)"/><path d="m-4.75 10.25 2.05-.3 1.65-.35.6-.2 3.9-1.25 2-.85.9-.6L7.9 5.25q.35 2.9.1 3.2l-.1.2q-.6.75-1.75 1.45l-2.8 1.35L-.4 12.6l-.55.15-3.8.7q-5.2.65-8.95-.75l-.55-.3q-.3-.3-.35-3.5 2.8 1.7 6 1.75l3.8-.4h.05M-14.55 9l-.05-.1.05.1" fill="#3e3d24" fill-rule="evenodd" transform="translate(15.25 2.75)"/><path d="M-4.75 10.15v.1h-.05l.05-.1" fill="#93c" fill-rule="evenodd" transform="translate(15.25 2.75)"/><path d="M-14.6 8.9h-.05l.05-.1v.1" fill="#8f8e01" fill-rule="evenodd" transform="translate(15.25 2.75)"/><path d="M4.8-.9q-3.2-2.2-6.6-.75L-3.2-1Q-5.75.1-8.3 1.55l-.4.25M5.95.2 4.8-.9m-19.4 9.8.05.1m-.05-.1h-.05l.05-.1q-.45-1.95.35-4.05.7-2.15 5.35-3m-5.7 7.05v.1q.05 3.2.35 3.5l.55.3q3.75 1.4 8.95.75l3.8-.7.55-.15 3.75-1.15 2.8-1.35Q7.3 9.4 7.9 8.65l.1-.2q.25-.3-.1-3.2Q8.4 1.8 5.95.2" fill="none" stroke="#333" stroke-linecap="round" stroke-linejoin="round" transform="translate(15.25 2.75)"/><path d="m-5.05.2-1.4-.5-.8.1-.5.6q-.15.4.1.75m5-2.7-.5-.15-.75.1-.5.65.1.75m-4 2q-.55-.3-1.2-.5l-.8.2q-.45.15-.55.6l.1.75" fill="none" stroke="#333" stroke-linecap="round" stroke-linejoin="round" transform="translate(15.25 2.75)"/><path d="m-6.5 2.75.05.05h-.05v-.05" fill="#fc0" fill-rule="evenodd" transform="translate(15.25 2.75)"/><path d="m-6.95-.1.8-.1q1.5.45 2.7 1.25 1.55 1 2.6 2.75.2.35.1.75-.1.45-.45.7l-.8.1-.7-.5q-.8-1.3-1.9-2.05-.95-.6-2.15-.95l-.65-.55q-.2-.4-.05-.8l.5-.6m4.15-1.45q1.4.4 2.55 1.15 1.6.95 2.7 2.75.25.35.15.8l-.5.65-.8.15q-.4-.15-.65-.5-.8-1.35-1.95-2.1h-.05l-2-.85L-4 0l-.15-.8.55-.65.8-.1M-6.5 2.8q1.5.95 2.55 2.65.25.4.15.8t-.5.65l-.8.15q-.4-.15-.65-.5-.8-1.3-1.9-2-.95-.65-2.2-1.05l-.6-.5q-.25-.4-.1-.75.1-.45.5-.65l.8-.1q1.55.45 2.75 1.25v.05" fill="#1e281e" fill-rule="evenodd" transform="translate(15.25 2.75)"/></g></defs></svg>

<?xml version="1.0" encoding="UTF-8" standalone="no"?>
<svg xmlns:xlink="http://www.w3.org/1999/xlink" height="38.3px" width="36.05px" xmlns="http://www.w3.org/2000/svg">
  <g transform="matrix(1.0, 0.0, 0.0, 1.0, 23.8, 14.85)">
    <use height="16.9" transform="matrix(1.0, 0.0, 0.0, 1.0, -15.25, -2.75)" width="23.85" xlink:href="#shape0"/>
  </g>
  <defs>
    <g id="shape0" transform="matrix(1.0, 0.0, 0.0, 1.0, 15.25, 2.75)">
      <path d="M4.8 -0.9 Q1.55 0.85 -2.0 -0.05 L-3.2 -1.0 -1.8 -1.65 Q1.6 -3.1 4.8 -0.9 M-8.7 1.85 Q-6.4 2.65 -5.2 4.85 -3.9 7.45 -4.75 10.15 L-4.8 10.25 -8.6 10.65 Q-11.8 10.6 -14.6 8.9 L-14.6 8.8 Q-15.05 6.85 -14.25 4.75 -13.55 2.6 -8.9 1.75 L-8.7 1.85 M3.45 8.15 Q2.95 7.75 2.85 7.15 L2.75 6.7 2.8 5.5 2.9 4.65 Q3.05 3.7 3.45 2.85 L4.5 1.25 Q5.1 0.6 5.95 0.2 8.4 1.8 7.9 5.25 L6.35 6.7 5.45 7.3 3.45 8.15 M-4.8 10.25 L-4.8 10.2 -4.8 10.25" fill="#5e5922" fill-rule="evenodd" stroke="none"/>
      <path d="M-3.2 -1.0 L-2.0 -0.05 Q1.55 0.85 4.8 -0.9 L5.95 0.2 Q5.1 0.6 4.5 1.25 L3.45 2.85 Q3.05 3.7 2.9 4.65 L2.8 5.5 2.75 6.7 2.85 7.15 Q2.95 7.75 3.45 8.15 L-0.45 9.4 -1.05 9.6 -2.7 9.95 -4.75 10.25 -4.75 10.15 Q-3.9 7.45 -5.2 4.85 -6.4 2.65 -8.7 1.85 L-8.7 1.8 -8.3 1.55 Q-5.75 0.1 -3.2 -1.0" fill="#647b44" fill-rule="evenodd" stroke="none"/>
      <path d="M-8.7 1.8 L-8.7 1.85 -8.9 1.75 -8.7 1.8" fill="#cc0000" fill-rule="evenodd" stroke="none"/>
      <path d="M-4.75 10.25 L-2.7 9.95 -1.05 9.6 -0.45 9.4 3.45 8.15 5.45 7.3 6.35 6.7 7.9 5.25 Q8.25 8.15 8.0 8.45 L7.9 8.65 Q7.3 9.4 6.15 10.1 L3.35 11.45 -0.4 12.6 -0.95 12.75 -4.75 13.45 Q-9.95 14.1 -13.7 12.7 L-14.25 12.4 Q-14.55 12.1 -14.6 8.9 -11.8 10.6 -8.6 10.65 L-4.8 10.25 -4.75 10.25 M-14.55 9.0 L-14.6 8.9 -14.55 9.0" fill="#3e3d24" fill-rule="evenodd" stroke="none"/>
      <path d="M-4.75 10.15 L-4.75 10.25 -4.8 10.25 -4.75 10.15" fill="#9933cc" fill-rule="evenodd" stroke="none"/>
      <path d="M-14.6 8.9 L-14.65 8.9 -14.6 8.8 -14.6 8.9" fill="#8f8e01" fill-rule="evenodd" stroke="none"/>
      <path d="M4.8 -0.9 Q1.6 -3.1 -1.8 -1.65 L-3.2 -1.0 Q-5.75 0.1 -8.3 1.55 L-8.7 1.8 M5.95 0.2 L4.8 -0.9 M-14.6 8.9 L-14.55 9.0 M-14.6 8.9 L-14.65 8.9 -14.6 8.8 Q-15.05 6.85 -14.25 4.75 -13.55 2.6 -8.9 1.75 M-14.6 8.8 L-14.6 8.9 Q-14.55 12.1 -14.25 12.4 L-13.7 12.7 Q-9.95 14.1 -4.75 13.45 L-0.95 12.75 -0.4 12.6 3.35 11.45 6.15 10.1 Q7.3 9.4 7.9 8.65 L8.0 8.45 Q8.25 8.15 7.9 5.25 8.4 1.8 5.95 0.2" fill="none" stroke="#333333" stroke-linecap="round" stroke-linejoin="round" stroke-width="1.0"/>
      <path d="M-5.05 0.2 L-6.45 -0.3 -7.25 -0.2 -7.75 0.4 Q-7.9 0.8 -7.65 1.15 M-2.65 -1.55 L-3.15 -1.7 -3.9 -1.6 -4.4 -0.95 -4.3 -0.2 M-8.3 1.8 Q-8.85 1.5 -9.5 1.3 L-10.3 1.5 Q-10.75 1.65 -10.85 2.1 L-10.75 2.85" fill="none" stroke="#333333" stroke-linecap="round" stroke-linejoin="round" stroke-width="1.0"/>
      <path d="M-6.5 2.75 L-6.45 2.8 -6.5 2.8 -6.5 2.75" fill="#ffcc00" fill-rule="evenodd" stroke="none"/>
      <path d="M-6.95 -0.1 L-6.15 -0.2 Q-4.65 0.25 -3.45 1.05 -1.9 2.05 -0.85 3.8 -0.65 4.15 -0.75 4.55 -0.85 5.0 -1.2 5.25 L-2.0 5.35 -2.7 4.85 Q-3.5 3.55 -4.6 2.8 -5.55 2.2 -6.75 1.85 L-7.4 1.3 Q-7.6 0.9 -7.45 0.5 L-6.95 -0.1 M-2.8 -1.55 Q-1.4 -1.15 -0.25 -0.4 1.35 0.55 2.45 2.35 2.7 2.7 2.6 3.15 L2.1 3.8 1.3 3.95 Q0.9 3.8 0.65 3.45 -0.15 2.1 -1.3 1.35 L-1.35 1.35 -3.35 0.5 -4.0 0.0 -4.15 -0.8 -3.6 -1.45 -2.8 -1.55 M-6.5 2.8 Q-5.0 3.75 -3.95 5.45 -3.7 5.85 -3.8 6.25 -3.9 6.65 -4.3 6.9 L-5.1 7.05 Q-5.5 6.9 -5.75 6.55 -6.55 5.25 -7.65 4.55 -8.6 3.9 -9.85 3.5 L-10.45 3.0 Q-10.7 2.6 -10.55 2.25 -10.45 1.8 -10.05 1.6 L-9.25 1.5 Q-7.7 1.95 -6.5 2.75 L-6.5 2.8" fill="#1e281e" fill-rule="evenodd" stroke="none"/>
    </g>
  </defs>
</svg>
